X:1
T:Tiller Girl
C:Bob Mills (c) 1986
R:reel
Z:from Tripping Up Stairs
M:4/4
K:D
L: 1/4
B/c/|"D"d d B< A| "G"B3 A |"Em"G-G/ F-F/ D|"A"E3 B/c/|\
"D"d d B< A| "G"B3 A |"Em"G-G/ F-F/ E|"D"D3 :|
A| "G"d-d/ d-d/ d|"A"e3 e/f/|"G"g f e/d/ B| "A"e4|\
"G"d-d/ d-d/ d|"A"e3 e/f/|"G"g f e/d/ B| "D"d3|]
